X:5
T:
T:Variation III.
M:3/4
L:1/16
K:C
%1
G3F | ECE GEG cEG cGc eGG dGG | cedcBA GcBAGF EGFEDC |
w:l1p238
%2
B,GGGGG FGGGGG BGG dGG | cBc e^de g^f=f e=dc BAG G^F=F | ECE GEG cEG cGc eGG dGG |
w:l2p238
%3
cedcBA GcBAGF EGFEDC | B,GG GGG FGG GGG BGG dGG | cGG eGG c2 z2 ||
w:l3p238
%4
e3d | ddd dg ^fff f>A c4 | BBB Bg ddd d>G B4 | eee eA ccc c^F AAA AD |
w:l4p238
%5
G^GA ^ABc ^cd^d ef^f g3e | ddd dg ^fff f>A c4 | BBB Bg ddd d>G B4 |
w:l5p238
%6
eee eA ccc c^F AAA "rall."Ad | G8 "Tempo I"G3F || ECE GEG cEG cGc eGG dGG |
w:l6p238
%7
cedcBA GcBAGF EGFEDC | B,GGGGG FGGGGG BGG dGG |
w:l7p238
%8
cBc e^de g^f=f e=dc BAG G^F=F | ECE GEG cEG cGc eGG dGG |
w:l8p238
%9
ced cBA GcB AGF EGF EDC | B,GGGGG FGGGGG BGG dGG | cGG eGG c2 z2 |]
w:l9p238

